X:128
M:3/4
L:1/8
Q:1/4=200
K:E Minor
a<e z2^g2|a<e z2f2|=g<d z2b2|g<d z2^g2|a<e z2 ab|c'3B a2|e3d B2|A4 ^g2|
a<e z2^g2|a<e z2f2|=g<d z2 b2|g<d z2B2|c3 def|gz fz ez|dz cz Bz|A4||

